X: 21521
T: DUNKELD HOUSE - Jig
R: jig
B: K\"ohler's Violin Repository, v.2, 1885 p.152 #1
F: http://www.archive.org/details/klersviolinrepos02rugg
Z: 2012 John Chambers <jc:trillian.mit.edu>
M: 6/8
L: 1/8
K: Em
uB, |\
EGE (G2E) | (B2E) (G2E) | (F2D) DFD | AFD DFD |\
EGE (G2E) | (B2E) (G2E) | dcB AGF | BGE E2 :|
|: uf |\
gbg ege | gbg ege | faf dfd | faf dfd |\
gbg ege | gbg ege | ege faf | gee (e2f) |
gbg ege | gbg ege | faf dfd | faf dfd |\
ege faf | gbg ege | dcB AFd | BGE E2 :|

%%sep 2 1 500

